X: 1
T: Jerry's Beaver Hat
R: jig
S: Fiddle Hell Online 2021-11-4
Z: 2022 John Chambers <jc:trillian.mit.edu>
M: 6/8
L: 1/8
K: D
|: DFA d2e | fdB BAF | TA3 dAF |1,3 TE3 GFE :|2,4 DED D3 :: dfa afd | gbg faf |
 dfa afd | cee ecA | dfa afd | gfe fed | B/c/dB AFA | DED D3 :|
